SVG_Azure_Grouped/Management/Run Command.svg

<?xml version="1.0" encoding="UTF-8" standalone="no"?>
<!-- Generated by Microsoft Visio, SVG Export Run Command.svg Page-1 -->

<svg
   xmlns:dc="http://purl.org/dc/elements/1.1/"
   xmlns:cc="http://creativecommons.org/ns#"
   xmlns:rdf="http://www.w3.org/1999/02/22-rdf-syntax-ns#"
   xmlns:svg="http://www.w3.org/2000/svg"
   xmlns="http://www.w3.org/2000/svg"
   xmlns:sodipodi="http://sodipodi.sourceforge.net/DTD/sodipodi-0.dtd"
   xmlns:inkscape="http://www.inkscape.org/namespaces/inkscape"
   width="0.78735983in"
   height="0.70868355in"
   viewBox="0 0 56.689976 51.025322"
   xml:space="preserve"
   class="st7"
   version="1.1"
   id="svg44"
   sodipodi:docname="Run Command.svg"
   style="font-size:12px;overflow:visible;color-interpolation-filters:sRGB;fill:none;fill-rule:evenodd;stroke-linecap:square;stroke-miterlimit:3"
   inkscape:version="0.92.5 (2060ec1f9f, 2020-04-08)"><metadata
   id="metadata50"><rdf:RDF><cc:Work
       rdf:about=""><dc:format>image/svg+xml</dc:format><dc:type
         rdf:resource="http://purl.org/dc/dcmitype/StillImage" /></cc:Work></rdf:RDF></metadata><defs
   id="defs48" /><sodipodi:namedview
   pagecolor="#ffffff"
   bordercolor="#666666"
   borderopacity="1"
   objecttolerance="10"
   gridtolerance="10"
   guidetolerance="10"
   inkscape:pageopacity="0"
   inkscape:pageshadow="2"
   inkscape:window-width="640"
   inkscape:window-height="480"
   id="namedview46"
   showgrid="false"
   inkscape:zoom="1.8195051"
   inkscape:cx="37.795228"
   inkscape:cy="19.499465"
   inkscape:window-x="0"
   inkscape:window-y="0"
   inkscape:window-maximized="0"
   inkscape:current-layer="svg44" />
	<style
   type="text/css"
   id="style2">
	<![CDATA[
		.st1 {fill:#7a7a7a;stroke:none;stroke-linecap:butt;stroke-width:12.24}
		.st2 {fill:#59b4d9;stroke:none;stroke-linecap:butt;stroke-width:12.24}
		.st3 {fill:#a0a1a2;stroke:none;stroke-linecap:butt;stroke-width:12.24}
		.st4 {fill:#ffffff;fill-opacity:0.2;stroke:none;stroke-linecap:butt;stroke-width:12.24}
		.st5 {fill:#b8d432;stroke:none;stroke-linecap:butt;stroke-width:12.24}
		.st6 {fill:#ffffff;stroke:none;stroke-linecap:butt;stroke-width:12.24}
		.st7 {fill:none;fill-rule:evenodd;font-size:12px;overflow:visible;stroke-linecap:square;stroke-miterlimit:3}
	]]>
	</style>

	<g
   id="g42"
   transform="translate(-12.24,-12.239)">
		<title
   id="title4">Page-1</title>
		<g
   id="group12048-1"
   transform="translate(12.24,-34.0157)">
			<title
   id="title6">Run Command.12048</title>
			<g
   id="group12049-2">
				<title
   id="title8">g16</title>
				<g
   id="shape12050-3"
   transform="translate(9.75118)">
					<title
   id="title10">path4</title>
					<path
   d="M 26.99,86.65 H 11.57 C 13.38,93.07 10.89,93.96 0,93.96 v 3.32 h 36.96 v -3.32 c -10.77,0 -11.79,-0.89 -9.97,-7.31 z"
   class="st1"
   id="path12"
   inkscape:connector-curvature="0"
   style="fill:#7a7a7a;stroke:none;stroke-width:12.23999977;stroke-linecap:butt" />
				</g>
				<g
   id="shape12051-5"
   transform="translate(3.40157,-13.2816)">
					<title
   id="title15">path6</title>
					<path
   d="m 49.78,62.97 0.11,34.31 H 0 V 62.97 h 49.89 z"
   class="st2"
   id="path17"
   inkscape:connector-curvature="0"
   style="fill:#59b4d9;stroke:none;stroke-width:12.23999977;stroke-linecap:butt" />
				</g>
				<g
   id="shape12052-7"
   transform="translate(0,-10.6253)">
					<title
   id="title20">path8</title>
					<path
   d="M 53.29,56.88 H 3.06 C 1.36,56.88 0,58.32 0,59.98 v 34.2 c 0,1.66 1.36,3.1 3.06,3.1 h 50.23 c 1.7,0 3.4,-1.44 3.4,-3.1 v -34.2 c 0,-1.66 -1.7,-3.1 -3.4,-3.1 z m -0.91,4.21 V 92.96 H 4.31 V 61.09 l 48.07,-0.11 z"
   class="st3"
   id="path22"
   inkscape:connector-curvature="0"
   style="fill:#a0a1a2;stroke:none;stroke-width:12.23999977;stroke-linecap:butt" />
				</g>
				<g
   id="shape12053-9"
   transform="translate(0,-10.6253)">
					<title
   id="title25">path10</title>
					<path
   d="M 4.31,93.07 V 61.09 l 43.88,-0.11 5.1,-4.1 H 3.06 C 1.36,56.88 0,58.32 0,59.98 v 34.2 c 0,1.66 1.36,3.1 3.06,3.1 h 1.25 l 5.21,-4.21 z"
   class="st4"
   id="path27"
   inkscape:connector-curvature="0"
   style="fill:#ffffff;fill-opacity:0.2;stroke:none;stroke-width:12.23999977;stroke-linecap:butt" />
				</g>
				<g
   id="shape12054-11"
   transform="translate(27.326,-47.9246)">
					<title
   id="title30">path12</title>
					<path
   d="m 1.59,96.5 c 0,0.45 -0.34,0.78 -0.8,0.78 C 0.34,97.28 0,96.95 0,96.5 c 0,-0.44 0.34,-0.77 0.79,-0.77 0.46,0 0.8,0.33 0.8,0.77 z"
   class="st5"
   id="path32"
   inkscape:connector-curvature="0"
   style="fill:#b8d432;stroke:none;stroke-width:12.23999977;stroke-linecap:butt" />
				</g>
				<g
   id="shape12055-13"
   transform="translate(17.0079,-17.7088)">
					<title
   id="title35">path14</title>
					<path
   d="m 21.54,88.42 h -2.26 v -2.21 c 0,-1.83 -1.53,-3.32 -3.4,-3.32 h -3.41 v -3.32 h 2.27 a 1.13386,1.1068 -180 0 0 1.13,-1.11 v -6.64 a 1.13386,1.1068 -180 0 0 -1.13,-1.1 h -6.8 a 1.13386,1.1068 -180 0 0 -1.14,1.1 v 6.64 a 1.13386,1.1068 -180 0 0 1.14,1.11 h 2.26 v 3.32 H 6.8 c -1.87,0 -3.4,1.49 -3.4,3.32 v 2.21 H 1.13 A 1.13386,1.1068 -180 0 0 0,89.53 v 6.64 a 1.13386,1.1068 -180 0 0 1.13,1.11 H 7.94 A 1.13386,1.1068 -180 0 0 9.07,96.17 V 89.53 A 1.13386,1.1068 -180 0 0 7.94,88.42 H 5.67 V 86.21 C 5.67,85.6 6.18,85.1 6.8,85.1 h 9.07 c 0.63,0 1.14,0.5 1.14,1.11 v 2.21 h -2.27 a 1.13386,1.1068 -180 0 0 -1.13,1.11 v 6.64 a 1.13386,1.1068 -180 0 0 1.13,1.1 l 6.8,0.01 a 1.13386,1.1068 -180 0 0 1.14,-1.11 v -6.64 a 1.13386,1.1068 -180 0 0 -1.14,-1.11 z"
   class="st6"
   id="path37"
   inkscape:connector-curvature="0"
   style="fill:#ffffff;stroke:none;stroke-width:12.23999977;stroke-linecap:butt" />
				</g>
			</g>
		</g>
	</g>
</svg>

<?xml version="1.0" encoding="UTF-8" standalone="no"?>
<!DOCTYPE svg PUBLIC "-//W3C//DTD SVG 1.1//EN" "http://www.w3.org/Graphics/SVG/1.1/DTD/svg11.dtd">
<!-- Generated by Microsoft Visio, SVG Export Run Command.svg Page-1 -->
<svg xmlns="http://www.w3.org/2000/svg" xmlns:xlink="http://www.w3.org/1999/xlink" xmlns:ev="http://www.w3.org/2001/xml-events"
		width="1.1274in" height="1.3511in" viewBox="0 0 81.1729 97.2794" xml:space="preserve" color-interpolation-filters="sRGB"
		class="st7">
	<style type="text/css">
	<![CDATA[
		.st1 {fill:#7a7a7a;stroke:none;stroke-linecap:butt;stroke-width:12.24}
		.st2 {fill:#59b4d9;stroke:none;stroke-linecap:butt;stroke-width:12.24}
		.st3 {fill:#a0a1a2;stroke:none;stroke-linecap:butt;stroke-width:12.24}
		.st4 {fill:#ffffff;fill-opacity:0.2;stroke:none;stroke-linecap:butt;stroke-width:12.24}
		.st5 {fill:#b8d432;stroke:none;stroke-linecap:butt;stroke-width:12.24}
		.st6 {fill:#ffffff;stroke:none;stroke-linecap:butt;stroke-width:12.24}
		.st7 {fill:none;fill-rule:evenodd;font-size:12px;overflow:visible;stroke-linecap:square;stroke-miterlimit:3}
	]]>
	</style>

	<g>
		<title>Page-1</title>
		<g id="group11769-1" transform="translate(12.24,-34.0157)">
			<title>Run Command.11769</title>
			<g id="group11770-2">
				<title>g16</title>
				<g id="shape11771-3" transform="translate(9.75118,1.42109E-14)">
					<title>path4</title>
					<path d="M26.99 86.65 L11.57 86.65 C13.38 93.07 10.89 93.96 0 93.96 L0 97.28 L36.96 97.28 L36.96 93.96 C26.19
								 93.96 25.17 93.07 26.99 86.65 Z" class="st1"/>
				</g>
				<g id="shape11772-5" transform="translate(3.40157,-13.2816)">
					<title>path6</title>
					<path d="M49.78 62.97 L49.89 97.28 L0 97.28 L0 62.97 L49.89 62.97 L49.78 62.97 Z" class="st2"/>
				</g>
				<g id="shape11773-7" transform="translate(0,-10.6253)">
					<title>path8</title>
					<path d="M53.29 56.88 L3.06 56.88 C1.36 56.88 0 58.32 0 59.98 L0 94.18 C0 95.84 1.36 97.28 3.06 97.28 L53.29
								 97.28 C54.99 97.28 56.69 95.84 56.69 94.18 L56.69 59.98 C56.69 58.32 54.99 56.88 53.29 56.88 ZM52.38
								 61.09 L52.38 92.96 L4.31 92.96 L4.31 61.09 L52.38 60.98 L52.38 61.09 Z" class="st3"/>
				</g>
				<g id="shape11774-9" transform="translate(0,-10.6253)">
					<title>path10</title>
					<path d="M4.31 93.07 L4.31 61.09 L48.19 60.98 L53.29 56.88 L3.06 56.88 C1.36 56.88 0 58.32 0 59.98 L0 94.18 C0
								 95.84 1.36 97.28 3.06 97.28 L4.31 97.28 L9.52 93.07 L4.31 93.07 Z" class="st4"/>
				</g>
				<g id="shape11775-11" transform="translate(27.326,-47.9246)">
					<title>path12</title>
					<path d="M1.59 96.5 C1.59 96.95 1.25 97.28 0.79 97.28 C0.34 97.28 0 96.95 0 96.5 C0 96.06 0.34 95.73 0.79 95.73
								 C1.25 95.73 1.59 96.06 1.59 96.5 Z" class="st5"/>
				</g>
				<g id="shape11776-13" transform="translate(17.0079,-17.7088)">
					<title>path14</title>
					<path d="M21.54 88.42 L19.28 88.42 L19.28 86.21 C19.28 84.38 17.75 82.89 15.88 82.89 L12.47 82.89 L12.47 79.57
								 L14.74 79.57 A1.13386 1.1068 -180 0 0 15.87 78.46 L15.87 71.82 A1.13386 1.1068 -180 0 0 14.74 70.72
								 L7.94 70.72 A1.13386 1.1068 -180 0 0 6.8 71.82 L6.8 78.46 A1.13386 1.1068 -180 0 0 7.94 79.57 L10.2
								 79.57 L10.2 82.89 L6.8 82.89 C4.93 82.89 3.4 84.38 3.4 86.21 L3.4 88.42 L1.13 88.42 A1.13386 1.1068
								 -180 0 0 -0 89.53 L0 96.17 A1.13386 1.1068 -180 0 0 1.13 97.28 L7.94 97.28 A1.13386 1.1068 -180
								 0 0 9.07 96.17 L9.07 89.53 A1.13386 1.1068 -180 0 0 7.94 88.42 L5.67 88.42 L5.67 86.21 C5.67 85.6
								 6.18 85.1 6.8 85.1 L15.87 85.1 C16.5 85.1 17.01 85.6 17.01 86.21 L17.01 88.42 L14.74 88.42 A1.13386
								 1.1068 -180 0 0 13.61 89.53 L13.61 96.17 A1.13386 1.1068 -180 0 0 14.74 97.27 L21.54 97.28 A1.13386
								 1.1068 -180 0 0 22.68 96.17 L22.68 89.53 A1.13386 1.1068 -180 0 0 21.54 88.42 Z" class="st6"/>
				</g>
			</g>
		</g>
	</g>
</svg>
